tools/panel_16/weather-few-clouds-night.svg

<svg xmlns="http://www.w3.org/2000/svg" width="16" height="16" version="1.1">
 <defs>
  <style id="current-color-scheme" type="text/css">
   .ColorScheme-Text { color:#d3dae3; } .ColorScheme-Highlight { color:#5294e2; }
  </style>
 </defs>
 <g transform="translate(-0.01233998,-0.006)">
  <path style="fill:currentColor" class="ColorScheme-Text" d="M 7.752,1.0371 C 4.9892,1.1385 2.4433,2.8417 1.4395,5.5996 0.1756,9.072 1.8081,12.924 5.127,14.412 5.0338,14.075 4.9801,13.705 5.002,13.35 5.0297,12.348 5.5859,11.462 6.377,10.881 4.8101,9.148 4.2414,6.6344 5.0957,4.2871 5.6099,2.8745 6.5701,1.7787 7.752,1.0371 Z m 3.25,7.9689 c -1.312,0 -2.405,0.858 -2.813,2.031 -1.2304,0.156 -2.187,1.196 -2.187,2.469 0,1.381 1.119,2.5 2.5,2.5 l 5.5,0 c 1.105,0 2,-0.896 2,-2 0,-1.105 -0.895,-2 -2,-2 0,-1.657 -1.343,-3 -3,-3 z"/>
 </g>
</svg>

<svg xmlns="http://www.w3.org/2000/svg" width="16" height="16" version="1.1">
 <defs>
  <style id="current-color-scheme" type="text/css">
   .ColorScheme-Text { color:#d3dae3; } .ColorScheme-Highlight { color:#5294e2; }
  </style>
 </defs>
 <path style="fill:currentColor" class="ColorScheme-Text" d="M 7.7397,1.0311 C 4.9769,1.1325 2.431,2.8357 1.4272,5.5936 0.16326,9.066 1.7958,12.918 5.1147,14.406 5.0215,14.069 4.9678,13.699 4.9897,13.344 5.0174,12.342 5.5736,11.456 6.3647,10.875 4.7978,9.142 4.2291,6.6284 5.0834,4.2811 5.5976,2.8685 6.5578,1.7727 7.7397,1.0311 Z M 10.99,9 C 9.6777,9 8.5847,9.858 8.1767,11.031 6.9463,11.187 5.9897,12.227 5.9897,13.5 5.9897,14.881 7.1087,16 8.4897,16 H 13.99 C 15.095,16 15.99,15.104 15.99,14 15.99,12.895 15.095,12 13.99,12 13.99,10.343 12.647,9 10.99,9 Z"/>
</svg>
